files/resources/svgs/general/s-speaker-wave.svg

<svg width="24" height="24" viewBox="0 0 24 24" fill="none" xmlns="http://www.w3.org/2000/svg">
<path d="M13.5 4.06063C13.5 2.72427 11.8843 2.05501 10.9393 2.99996L6.43934 7.49997H4.50905C3.36772 7.49997 2.19106 8.16441 1.8493 9.40502C1.62147 10.2321 1.5 11.1024 1.5 12C1.5 12.8975 1.62147 13.7678 1.8493 14.5949C2.19106 15.8355 3.36772 16.5 4.50905 16.5H6.43934L10.9393 21C11.8843 21.9449 13.5 21.2757 13.5 19.9393V4.06063Z" fill="#0F172A"/>
<path d="M18.5837 5.10561C18.8766 4.81272 19.3514 4.81272 19.6443 5.10561C23.452 8.91322 23.452 15.0866 19.6443 18.8942C19.3514 19.1871 18.8766 19.1871 18.5837 18.8942C18.2908 18.6013 18.2908 18.1264 18.5837 17.8335C21.8055 14.6117 21.8055 9.38809 18.5837 6.16627C18.2908 5.87338 18.2908 5.3985 18.5837 5.10561Z" fill="#0F172A"/>
<path d="M15.9323 7.75734C16.2252 7.46445 16.7001 7.46445 16.993 7.75734C19.3361 10.1005 19.3361 13.8995 16.993 16.2426C16.7001 16.5355 16.2252 16.5355 15.9323 16.2426C15.6394 15.9497 15.6394 15.4749 15.9323 15.182C17.6897 13.4246 17.6897 10.5754 15.9323 8.818C15.6394 8.52511 15.6394 8.05024 15.9323 7.75734Z" fill="#0F172A"/>
</svg>

<svg xmlns="http://www.w3.org/2000/svg" viewBox="0 0 24 24" fill="currentColor" aria-hidden="true">
  <path d="M13.5 4.06c0-1.336-1.616-2.005-2.56-1.06l-4.5 4.5H4.508c-1.141 0-2.318.664-2.66 1.905A9.76 9.76 0 001.5 12c0 .898.121 1.768.35 2.595.341 1.24 1.518 1.905 2.659 1.905h1.93l4.5 4.5c.945.945 2.561.276 2.561-1.06V4.06zM18.584 5.106a.75.75 0 011.06 0c3.808 3.807 3.808 9.98 0 13.788a.75.75 0 11-1.06-1.06 8.25 8.25 0 000-11.668.75.75 0 010-1.06z"/>
  <path d="M15.932 7.757a.75.75 0 011.061 0 6 6 0 010 8.486.75.75 0 01-1.06-1.061 4.5 4.5 0 000-6.364.75.75 0 010-1.06z"/>
</svg>
